images_sukapura_svg/cmd/sc_grow.svg

<svg viewBox="0 0 16 16" xmlns="http://www.w3.org/2000/svg" xmlns:xlink="http://www.w3.org/1999/xlink"><linearGradient id="a" gradientUnits="userSpaceOnUse" x1="-16.792119" x2="-20.760884" y1=".307967" y2=".214215"><stop offset="0" stop-color="#0040dd"/><stop offset="1" stop-color="#0a84ff"/></linearGradient><path d="m7.0703125 0-6.11132812 16.003906h2.17773442l1.5058593-4.177734h6.7050779l1.527344 4.177734h2.166016l-4.210938-11.003906h-1.3242186a1.4998637 1.4998879 0 0 1 -.703125-.1757812l1.9179686 5.2656252h-5.4414061l2.7148437-7.4843752.1210938.3320312a1.4998637 1.4998879 0 0 1 .3300781-.4980469l1.0175781-1.015625-.5449218-1.4238281z" fill="#69696e"/><path d="m8.507121 1.494946-2.9999998 2.9949499 2.9999998 3.0050501z" fill="url(#a)" stroke="url(#a)" stroke-linecap="round" stroke-linejoin="round" transform="matrix(0 1.0000007 -.99998453 0 16.999881 -5.007125)"/></svg>

<?xml version="1.0" encoding="UTF-8" standalone="no"?>
<svg
   xmlns:dc="http://purl.org/dc/elements/1.1/"
   xmlns:cc="http://creativecommons.org/ns#"
   xmlns:rdf="http://www.w3.org/1999/02/22-rdf-syntax-ns#"
   xmlns:svg="http://www.w3.org/2000/svg"
   xmlns="http://www.w3.org/2000/svg"
   xmlns:xlink="http://www.w3.org/1999/xlink"
   xmlns:sodipodi="http://sodipodi.sourceforge.net/DTD/sodipodi-0.dtd"
   xmlns:inkscape="http://www.inkscape.org/namespaces/inkscape"
   viewBox="0 0 16 16"
   version="1.1"
   id="svg6"
   sodipodi:docname="sc_grow.svg"
   inkscape:version="0.92.3 (unknown)">
  <metadata
     id="metadata12">
    <rdf:RDF>
      <cc:Work
         rdf:about="">
        <dc:format>image/svg+xml</dc:format>
        <dc:type
           rdf:resource="http://purl.org/dc/dcmitype/StillImage" />
      </cc:Work>
    </rdf:RDF>
  </metadata>
  <defs
     id="defs10">
    <linearGradient
       gradientTransform="translate(-25.830508,-3.5932203)"
       id="a"
       gradientUnits="userSpaceOnUse"
       x1="14"
       x2="13.79661"
       y1="22"
       y2="2.1355929">
      <stop
         offset="0"
         stop-color="#0040dd"
         id="stop2" />
      <stop
         offset="1"
         stop-color="#0a84ff"
         id="stop4" />
    </linearGradient>
    <linearGradient
       inkscape:collect="always"
       xlink:href="#a"
       id="linearGradient1299"
       gradientUnits="userSpaceOnUse"
       gradientTransform="matrix(-1,0,0,1,-29.010942,26.95119)"
       x1="-31.010942"
       y1="-4.95119"
       x2="-31.010942"
       y2="-16.951191" />
    <linearGradient
       inkscape:collect="always"
       xlink:href="#a"
       id="linearGradient869"
       x1="9.0383892"
       y1="3.9011867"
       x2="5.0696239"
       y2="3.8074353"
       gradientUnits="userSpaceOnUse" />
    <linearGradient
       inkscape:collect="always"
       xlink:href="#a"
       id="linearGradient877"
       x1="9.0383892"
       y1="3.9011867"
       x2="5.0696239"
       y2="3.8074353"
       gradientUnits="userSpaceOnUse" />
  </defs>
  <sodipodi:namedview
     pagecolor="#ffffff"
     bordercolor="#666666"
     borderopacity="1"
     objecttolerance="10"
     gridtolerance="10"
     guidetolerance="10"
     inkscape:pageopacity="0"
     inkscape:pageshadow="2"
     inkscape:window-width="1366"
     inkscape:window-height="706"
     id="namedview8"
     showgrid="true"
     inkscape:snap-global="false"
     inkscape:zoom="8"
     inkscape:cx="-1.164079"
     inkscape:cy="3.845914"
     inkscape:window-x="0"
     inkscape:window-y="0"
     inkscape:window-maximized="1"
     inkscape:current-layer="svg6">
    <inkscape:grid
       type="xygrid"
       id="grid841" />
  </sodipodi:namedview>
  <path
     style="font-style:normal;font-weight:normal;font-size:22.51066399px;line-height:1.25;font-family:sans-serif;letter-spacing:0px;word-spacing:0px;fill:#69696e;fill-opacity:1;stroke:none;stroke-width:0.56276661"
     d="M 7.0703125 0 L 0.95898438 16.003906 L 3.1367188 16.003906 L 4.6425781 11.826172 L 11.347656 11.826172 L 12.875 16.003906 L 15.041016 16.003906 L 10.830078 5 L 9.5058594 5 A 1.4998637 1.4998879 0 0 1 8.8027344 4.8242188 L 10.720703 10.089844 L 5.2792969 10.089844 L 7.9941406 2.6054688 L 8.1152344 2.9375 A 1.4998637 1.4998879 0 0 1 8.4453125 2.4394531 L 9.4628906 1.4238281 L 8.9179688 0 L 7.0703125 0 z "
     id="text845" />
  <path
     d="m8.507121 1.494946-2.9999998 2.9949499 2.9999998 3.0050501z"
     fill="#0a84ff"
     stroke="#0a84ff"
     stroke-linecap="round"
     stroke-linejoin="round"
     transform="matrix(0 1.0000007 -.99998453 0 16.999881 -5.007125)"
     id="path4"
     style="stroke:url(#linearGradient869);fill-opacity:1;fill:url(#linearGradient877)" />
</svg>
